X: 29343
T: Newfoundland, The
R: reel
M: 4/4
K: Dmajor
BcdA B2AF|D2FD ADFD|BE~E2 BcdA|1 (3Bcd eg fddc:|2 (3Bcd eg fd~d2||
defg afed|cdef gfec|defg afed|~g2eg fd~d2|
defg afed|cdef g2fg|gefd eggf|afeg fddc||

